X:1
T:Donna da vostri sguardi
T:Luca Marenzio
T:Source : Il primo libro delle Villanelle a tre voci---Venetia---G.Vincenzi---1586. Editor : André Vierendeels (21/05/17).
T:Notes : Original clefs : C1, C2, F4 Editorial accidentals above the staff "Terza impressione" 
T:Donna da vostri sguardi
T:©
T:©
C:Luca Marenzio
Z:©
%%score [ 1 2 ] 3
L:1/8
Q:1/4=120
M:4/4
K:C
V:1 treble nm="Soprano" snm="S"
V:2 treble nm="Alto" snm="A"
V:3 bass nm="Bass" snm="B"
V:1
"^1)" B8 | B3 A B2 c2 | B4 B4 | c3 d e2 f2- | f2 e2 d4 | c8 :: e4 d4 | c2 cB A4 | B2 GA B2 c2 | %9
w: Don-|na da vo- stri|sguar- di,|es- con pun- gen-|* ti dar-|di,|e sa|be gli'oc- chi'a- mor-|pren- de di- let- to,|
w: Es'|io le bel- le|chio- me,|ven- go'a mi- rar,|_ ahi co-|me,|da du-|ro lac- cio'an- zi|ca- te- na for- te,|
 G2 E^F ^G2 A2 | c2 AB ^c2 d2 | B6 B2 | A6 A2 | G8 | c6 c2 | B6 G2 | A8 | G8 :| %18
w: pren- de di- let- to,|pren- de di- let- to,|di tra-|fi- ger-|mi'ogn'|hor con|es- s'il|pet-|to.|
w: ca- te- na for- te,|ca- te- na for- te,|strin- ger|mi sen-|to'il|cor vi-|ci- no'à|mor-|te.|
V:2
"^2)""^1)" ^G8 | ^G3 ^F G2 A2 | ^G4 G4 |"^-natural" A3 G E2 A2- | A2 c4 B2 | c8 :: c2 B4 G2 | %7
w: Don-|na da vo- stri|sguar- di,|es- scon pun- gen-|* ti dar-|di,|e da be-|
w: Ma|da la dol- ce|boc- ca,|se fuor la vo-|* ce scoc-|ca,|a for- mar|
 A2 G2 ^F4 | z4 G2 EF | G2 G2 E2 CD | E2 A,2 A2 ^FF | G2 D2 G4- | G2 G2 F4- | F2 E2 E4- | E4 A4- | %15
w: gli'oc- chi'a- mor|pren- de di-|let- to, pren- de di-|let- to pren- de di-|let- to, di|_ tra- fi-|* ger- mi'ogn'|_ hor|
w: le pa- rol'|in un mo-|men- to, d'in est- in-|gui- bil, d'in est- in-|gui- bil, d'in|_ est in-|* gui- bil|_ fo-|
 A2 G2 G4- | G2 ^F2 F4 | G8 :| %18
w: _ con es-|* s'il pet-|to.|
w: * co'ar- der|_ mi sen-|to.|
V:3
"^3)""^1)""^4)" E,8 | E,3 D, E,2 A,,2 | E,4 E,4 | A,3 B, C2 F,2- | F,2 A,2 G,4 | C,8 :: %6
w: Don-|na da vo- stri|sguar- di,|es- con pun- gen-|* ti dar-|di,|
w: O|Dio che dol- ce|gio- co,|dar- di ca- te-|* n'e fo-|co,|
 C,2 G,4 E,2 | F,2 G,2 D,4 | G,2 E,F, G,2 C,2 | E,2 C,D, E,2 A,,2 | A,2 F,G, A,2 D,2 | G,6 G,2 | %12
w: e da be-|gli'oc- chi'a- mor|pren- de di- let- to,|pren- de di- let- to,|pren- do di- let- to,|di tra-|
w: mi dan gli'oc-|chi, le trec-|cie, e le pa- ro-|e le pa- ro- le,|e le pa- ro- le,|e do-|
 D,6 D,2 | C,8 | A,,6 A,,2 | B,,6 C,2 | D,8 | G,,8 :| %18
w: fi- ger-|mi'ogn'|hor con|es- s'il|pet-|to.|
w: lor sen-|to,|che co-|si'A- mor|vuo-|le.|

